flaticon/files-and-folders/files-26.svg

<svg xmlns="http://www.w3.org/2000/svg" width="32" height="32" viewBox="0 0 24 24">
    <path d="M 23.199219 2.398438 L 22.800781 2.398438 L 22.800781 2 C 22.800781 0.878906 21.921875 0 20.800781 0 L 2.398438 0 C 1.28125 0 0.398438 0.878906 0.398438 2 L 0.398438 22 C 0.398438 23.121094 1.28125 24 2.398438 24 L 20.800781 24 C 21.921875 24 22.800781 23.121094 22.800781 22 L 22.800781 6.398438 L 23.199219 6.398438 C 23.441406 6.398438 23.601562 6.238281 23.601562 6 L 23.601562 2.800781 C 23.601562 2.558594 23.441406 2.398438 23.199219 2.398438 Z M 22 2 L 22 2.398438 L 20.398438 2.398438 L 20.398438 2 C 20.398438 1.972656 20.398438 1.941406 20.398438 1.914062 C 20.378906 1.492188 20.238281 1.109375 20.007812 0.800781 L 20.800781 0.800781 C 21.480469 0.800781 22 1.320312 22 2 Z M 17.609375 23.199219 C 17.839844 22.890625 17.980469 22.507812 17.996094 22.085938 C 18 22.058594 18 22.027344 18 22 L 18 8.398438 L 19.601562 8.398438 L 19.601562 22 C 19.601562 22.679688 19.078125 23.199219 18.398438 23.199219 Z M 20 7.601562 L 18 7.601562 L 18 5.199219 L 20.398438 5.199219 L 20.398438 7.601562 Z M 19.601562 2 L 19.601562 4.398438 L 18 4.398438 L 18 2 C 18 1.972656 18 1.941406 17.996094 1.914062 C 17.980469 1.492188 17.839844 1.109375 17.609375 0.800781 L 18.398438 0.800781 C 19.078125 0.800781 19.601562 1.320312 19.601562 2 Z M 11.601562 0.800781 L 11.601562 4.398438 C 11.601562 4.640625 11.761719 4.800781 12 4.800781 C 12.238281 4.800781 12.398438 4.640625 12.398438 4.398438 L 12.398438 0.800781 L 13.199219 0.800781 L 13.199219 6 C 13.199219 6.238281 13.359375 6.398438 13.601562 6.398438 C 13.839844 6.398438 14 6.238281 14 6 L 14 0.800781 L 14.800781 0.800781 L 14.800781 18.640625 L 13.078125 16.921875 C 12.921875 16.761719 12.679688 16.761719 12.519531 16.921875 L 10.800781 18.640625 L 10.800781 0.800781 Z M 1.199219 22 L 1.199219 2 C 1.199219 1.359375 1.71875 0.800781 2.398438 0.800781 L 10 0.800781 L 10 18.921875 C 10 19.199219 10.160156 19.441406 10.398438 19.558594 C 10.519531 19.601562 10.601562 19.601562 10.679688 19.601562 C 10.839844 19.601562 11.039062 19.519531 11.160156 19.398438 L 12.800781 17.761719 L 14.398438 19.398438 C 14.601562 19.601562 14.917969 19.679688 15.160156 19.558594 C 15.441406 19.441406 15.601562 19.199219 15.601562 18.921875 L 15.601562 0.800781 L 16 0.800781 C 16.679688 0.800781 17.199219 1.320312 17.199219 2 L 17.199219 22 C 17.199219 22.679688 16.679688 23.199219 16 23.199219 L 2.398438 23.199219 C 1.71875 23.199219 1.199219 22.679688 1.199219 22 Z M 22 22 C 22 22.679688 21.480469 23.199219 20.800781 23.199219 L 20.007812 23.199219 C 20.238281 22.890625 20.378906 22.507812 20.398438 22.085938 C 20.398438 22.058594 20.398438 22.027344 20.398438 22 L 20.398438 8.398438 L 20.800781 8.398438 C 21.039062 8.398438 21.199219 8.238281 21.199219 8 L 21.199219 6.398438 L 22 6.398438 Z M 22.800781 5.601562 L 21.199219 5.601562 L 21.199219 4.800781 C 21.199219 4.558594 21.039062 4.398438 20.800781 4.398438 L 20.398438 4.398438 L 20.398438 3.199219 L 22.800781 3.199219 Z M 22.800781 5.601562"/>
    <path d="M6.398438 2.800781L2.800781 2.800781C2.558594 2.800781 2.398438 2.960938 2.398438 3.199219 2.398438 3.441406 2.558594 3.601562 2.800781 3.601562L6.398438 3.601562C6.640625 3.601562 6.800781 3.441406 6.800781 3.199219 6.800781 2.960938 6.640625 2.800781 6.398438 2.800781zM6.398438 4.398438L2.800781 4.398438C2.558594 4.398438 2.398438 4.558594 2.398438 4.800781 2.398438 5.039062 2.558594 5.199219 2.800781 5.199219L6.398438 5.199219C6.640625 5.199219 6.800781 5.039062 6.800781 4.800781 6.800781 4.558594 6.640625 4.398438 6.398438 4.398438zM6.398438 4.398438"/>
</svg>

<svg xmlns="http://www.w3.org/2000/svg" width="32" height="32" viewBox="0 0 24 24">
    <path d="M23.2 2.398h-.4V2c0-1.121-.878-2-2-2H2.399c-1.117 0-2 .879-2 2v20c0 1.121.883 2 2 2h18.403c1.12 0 2-.879 2-2V6.398h.398c.242 0 .403-.16.403-.398V2.8c0-.241-.16-.402-.403-.402zM22 2v.398h-1.602V2v-.086a2.005 2.005 0 0 0-.39-1.113h.793C21.48.8 22 1.32 22 2zm-4.39 21.2c.23-.31.37-.692.386-1.114C18 22.059 18 22.027 18 22V8.398h1.602V22c0 .68-.524 1.2-1.204 1.2zM20 7.601h-2V5.199h2.398v2.403zM19.602 2v2.398H18V2c0-.027 0-.059-.004-.086A1.972 1.972 0 0 0 17.61.801h.79c.68 0 1.203.52 1.203 1.199zm-8-1.2v3.598c0 .243.16.403.398.403.238 0 .398-.16.398-.403V.801h.801V6c0 .238.16.398.403.398.238 0 .398-.16.398-.398V.8h.8v17.84l-1.722-1.718a.385.385 0 0 0-.558 0L10.8 18.64V.8zM1.199 22V2c0-.64.52-1.2 1.2-1.2H10v18.122c0 .277.16.52.398.637a.744.744 0 0 0 .762-.16l1.64-1.637 1.598 1.636c.204.204.52.282.762.16a.68.68 0 0 0 .442-.636V.8H16c.68 0 1.2.52 1.2 1.199v20c0 .68-.52 1.2-1.2 1.2H2.398c-.68 0-1.199-.52-1.199-1.2zM22 22c0 .68-.52 1.2-1.2 1.2h-.792c.23-.31.37-.692.39-1.114V8.398h.403c.238 0 .398-.16.398-.398V6.398H22zm.8-16.398h-1.6V4.8c0-.242-.16-.403-.4-.403h-.402V3.2h2.403zm0 0"/>
    <path d="M6.398 2.8H2.801c-.242 0-.403.16-.403.4 0 .241.16.402.403.402h3.597c.243 0 .403-.16.403-.403 0-.238-.16-.398-.403-.398zm0 0M6.398 4.398H2.801c-.242 0-.403.16-.403.403 0 .238.16.398.403.398h3.597c.243 0 .403-.16.403-.398 0-.242-.16-.403-.403-.403zm0 0"/>
</svg>
